svg/system/classify_3_line.svg

<?xml version="1.0" encoding="UTF-8"?>
<svg width="24px" height="24px" viewBox="0 0 24 24" version="1.1" xmlns="http://www.w3.org/2000/svg" xmlns:xlink="http://www.w3.org/1999/xlink">
    <title>classify_3_line</title>
    <g id="Icon" stroke="none" stroke-width="1" fill="none" fill-rule="evenodd">
        <g id="System" transform="translate(-384.000000, -480.000000)">
            <g id="classify_3_line" transform="translate(384.000000, 480.000000)">
                <path d="M24,0 L24,24 L0,24 L0,0 L24,0 Z M12.5935,23.2578 L12.5819,23.2595 L12.5109,23.295 L12.4919,23.2987 L12.4767,23.295 L12.4057,23.2595 C12.3958,23.2564 12.387,23.259 12.3821,23.2649 L12.378,23.2758 L12.3609,23.7031 L12.3659,23.7235 L12.3769,23.7357 L12.4805,23.8097 L12.4953,23.8136 L12.5071,23.8097 L12.6107,23.7357 L12.6233,23.7197 L12.6267,23.7031 L12.6096,23.2758 C12.6076,23.2657 12.601,23.2593 12.5935,23.2578 Z M12.8584,23.1453 L12.8445,23.1473 L12.6598,23.2397 L12.6499,23.2499 L12.6472,23.2611 L12.6651,23.6906 L12.6699,23.7034 L12.6784,23.7105 L12.8793,23.8032 C12.8914,23.8069 12.9022,23.803 12.9078,23.7952 L12.9118,23.7812 L12.8777,23.1665 C12.8753,23.1546 12.8674,23.147 12.8584,23.1453 Z M12.143,23.1473 C12.1332,23.1424 12.1222,23.1453 12.1156,23.1526 L12.1099,23.1665 L12.0758,23.7812 C12.0751,23.7927 12.0828,23.8019 12.0926,23.8046 L12.1083,23.8032 L12.3092,23.7105 L12.3186,23.7024 L12.3225,23.6906 L12.3404,23.2611 L12.3372,23.2485 L12.3278,23.2397 L12.143,23.1473 Z" id="MingCute" fill-rule="nonzero"></path>
                <path d="M7,3 C9.20914,3 11,4.79086 11,7 L11,10 C11,10.5523 10.5523,11 10,11 L7,11 C4.79086,11 3,9.20914 3,7 C3,4.79086 4.79086,3 7,3 Z M9,7 C9,5.89543 8.10457,5 7,5 C5.89543,5 5,5.89543 5,7 C5,8.10457 5.89543,9 7,9 L9,9 L9,7 Z M14,11 C13.4477,11 13,10.5523 13,10 L13,7 C13,4.79086 14.7909,3 17,3 C19.2091,3 21,4.79086 21,7 C21,9.20914 19.2091,11 17,11 L14,11 Z M15,7 L15,9 L17,9 C18.1046,9 19,8.10457 19,7 C19,5.89543 18.1046,5 17,5 C15.8954,5 15,5.89543 15,7 Z M21,17 C21,14.7909 19.2091,13 17,13 L14,13 C13.4477,13 13,13.4477 13,14 L13,17 C13,19.2091 14.7909,21 17,21 C19.2091,21 21,19.2091 21,17 Z M17,15 C18.1046,15 19,15.8954 19,17 C19,18.1046 18.1046,19 17,19 C15.8954,19 15,18.1046 15,17 L15,15 L17,15 Z M10,13 C10.5523,13 11,13.4477 11,14 L11,17 C11,19.2091 9.20914,21 7,21 C4.79086,21 3,19.2091 3,17 C3,14.7909 4.79086,13 7,13 L10,13 Z M9,17 L9,15 L7,15 C5.89543,15 5,15.8954 5,17 C5,18.1046 5.89543,19 7,19 C8.10457,19 9,18.1046 9,17 Z" id="形状" fill="#09244B"></path>
            </g>
        </g>
    </g>
</svg>

<svg xmlns="http://www.w3.org/2000/svg" width="24" height="24"><g fill="none" fill-rule="evenodd"><path d="M24 0v24H0V0h24ZM12.594 23.258l-.012.002-.071.035-.02.004-.014-.004-.071-.036c-.01-.003-.019 0-.024.006l-.004.01-.017.428.005.02.01.013.104.074.015.004.012-.004.104-.074.012-.016.004-.017-.017-.427c-.002-.01-.009-.017-.016-.018Zm.264-.113-.014.002-.184.093-.01.01-.003.011.018.43.005.012.008.008.201.092c.012.004.023 0 .029-.008l.004-.014-.034-.614c-.003-.012-.01-.02-.02-.022Zm-.715.002a.023.023 0 0 0-.027.006l-.006.014-.034.614c0 .012.007.02.017.024l.015-.002.201-.093.01-.008.003-.011.018-.43-.003-.012-.01-.01-.184-.092Z"/><path fill="#09244B" d="M7 3a4 4 0 0 1 4 4v3a1 1 0 0 1-1 1H7a4 4 0 1 1 0-8Zm2 4a2 2 0 1 0-2 2h2V7Zm5 4a1 1 0 0 1-1-1V7a4 4 0 1 1 4 4h-3Zm1-4v2h2a2 2 0 1 0-2-2Zm6 10a4 4 0 0 0-4-4h-3a1 1 0 0 0-1 1v3a4 4 0 0 0 8 0Zm-4-2a2 2 0 1 1-2 2v-2h2Zm-7-2a1 1 0 0 1 1 1v3a4 4 0 1 1-4-4h3Zm-1 4v-2H7a2 2 0 1 0 2 2Z"/></g></svg>
